X: 02122
T: SIXTEEN SARAHS
C: Bob McQuillen Jun'74
B: Bob's Note Book 1&2 #122
%R: reel
Z: 2019 John Chambers <jc:trillian.mit.edu>
M: C
L: 1/8
K: D
FG \
| A2AB AGFG | ABAG FGAB | ABde fdcd | edef e2FG |
| A2AB AGFG | ABde fdfd | ABcB cdeg | f2d2 d2 :|
|: cd \
| edcB A2de | fedc B2ef | gfgf efg^g | a2A2 A2cd |
| efed cAde | fgfe dBef | gfed cdeg | f2d2 d2 :|
%%begintext align
%% Sarah Bauhan    Sarah Eldredge      Sarah Hammond
%% Sarah Wanigmann Sarah Hall          Sarah Stevens
%% Sarah Meath     Sarah (Sasba) Hall  Sarah Cornog
%% Sarah Garland   Sarah Elder         Sarah Carlton
%% Sarah Franklin  Sarah Hamilton      Sarah Johnson
%% Sarah Woodward  and if you're Sarah, it's for YOU!
%%endtext

%%sep 1 1 500

%%sep 1 1 500

